storage/app/icons/phosphoricons/bold/truck-bold.svg

<svg xmlns="http://www.w3.org/2000/svg" fill="currentColor" viewBox="0 0 256 256"><path d="m255.14 115.54-14-35A19.89 19.89 0 0 0 222.58 68H196v-4a12 12 0 0 0-12-12H32a20 20 0 0 0-20 20v112a20 20 0 0 0 20 20h14.06a36 36 0 0 0 67.88 0h44.12a36 36 0 0 0 67.88 0H236a20 20 0 0 0 20-20v-64a21.7 21.7 0 0 0-.86-4.46M196 92h23.88l6.4 16H196ZM80 204a12 12 0 1 1 12-12 12 12 0 0 1-12 12m92-41.92A36.32 36.32 0 0 0 158.06 180h-44.12a36 36 0 0 0-67.88 0H36v-40h136Zm0-46.08H36V76h136Zm20 88a12 12 0 1 1 12-12 12 12 0 0 1-12 12m40-24h-6.06A36.09 36.09 0 0 0 196 156.23V132h36Z"/></svg>

<svg xmlns="http://www.w3.org/2000/svg" viewBox="0 0 256 256" fill="currentColor"><path d="M255.14,115.54l-14-35A19.89,19.89,0,0,0,222.58,68H196V64a12,12,0,0,0-12-12H32A20,20,0,0,0,12,72V184a20,20,0,0,0,20,20H46.06a36,36,0,0,0,67.88,0h44.12a36,36,0,0,0,67.88,0H236a20,20,0,0,0,20-20V120A21.7,21.7,0,0,0,255.14,115.54ZM196,92h23.88l6.4,16H196ZM80,204a12,12,0,1,1,12-12A12,12,0,0,1,80,204Zm92-41.92A36.32,36.32,0,0,0,158.06,180H113.94a36,36,0,0,0-67.88,0H36V140H172ZM172,116H36V76H172Zm20,88a12,12,0,1,1,12-12A12,12,0,0,1,192,204Zm40-24h-6.06A36.09,36.09,0,0,0,196,156.23V132h36Z"/></svg>
